assets/Crab/Flat/crab_flat.svg

<svg width="32" height="32" viewBox="0 0 32 32" fill="none" xmlns="http://www.w3.org/2000/svg">
<path d="M12.52 6.48H12.1V5H14C14 5.82 13.34 6.48 12.52 6.48Z" fill="#CA0B4A"/>
<path d="M12.52 6.81006H12.1V8.29006H14C14 7.47006 13.34 6.81006 12.52 6.81006Z" fill="#CA0B4A"/>
<path d="M19.48 6.48H20V5H18C18 5.82 18.66 6.48 19.48 6.48Z" fill="#CA0B4A"/>
<path d="M19.48 6.81006H20V8.29006H18C18 7.47006 18.66 6.81006 19.48 6.81006Z" fill="#CA0B4A"/>
<path d="M7.61768 12.7388C7.92025 12.572 8.12522 12.25 8.12522 11.88C8.12522 11.3388 7.68646 10.9 7.14522 10.9C6.60398 10.9 6.16522 11.3388 6.16522 11.88C6.16522 12.2455 6.36531 12.5643 6.66193 12.7328C6.42457 12.8876 6.26767 13.1554 6.26767 13.46C6.26767 15.4811 7.90812 17.1075 9.91522 17.1075C10.3944 17.1075 10.7828 16.7191 10.7828 16.24C10.7828 15.7608 10.3944 15.3724 9.91522 15.3724C8.86232 15.3724 8.00277 14.5188 8.00277 13.46C8.00277 13.1594 7.84991 12.8945 7.61768 12.7388Z" fill="#CA0B4A"/>
<path d="M24.4552 19.66C23.8152 19.69 23.4752 18.93 23.9252 18.48L28.2552 14.15C28.7052 13.7 29.4652 14.05 29.4352 14.68C29.3852 15.94 28.8752 17.18 27.9152 18.14C26.9552 19.1 25.7152 19.61 24.4552 19.66Z" fill="#CA0B4A"/>
<path d="M23.1952 20.3199C22.5552 20.3199 22.2652 21.0999 22.7352 21.5299C23.6652 22.3799 24.9052 22.8999 26.2552 22.8999C27.6152 22.8999 28.8552 22.3799 29.7752 21.5299C30.2452 21.0999 29.9452 20.3199 29.3152 20.3199H23.1952Z" fill="#CA0B4A"/>
<path d="M20.4094 23.2452C20.2829 22.8312 20.5872 22.35 21.0852 22.35C22.3452 22.36 23.6052 22.82 24.5952 23.75C25.5852 24.68 26.1452 25.9 26.2452 27.15C26.2952 27.78 25.5452 28.15 25.0852 27.72L20.6061 23.5508C21.0383 24.276 21.3019 25.1148 21.3352 26.02C21.3852 27.38 20.9152 28.63 20.0952 29.59C19.6852 30.07 18.8952 29.81 18.8752 29.17L18.6452 23.06C18.6252 22.43 19.3852 22.1 19.8352 22.55C20.0452 22.7648 20.2376 22.9973 20.4094 23.2452Z" fill="#CA0B4A"/>
<path d="M9.20522 21.59C9.66522 21.16 9.37522 20.39 8.74522 20.39H2.68522C2.05522 20.39 1.76522 21.16 2.22522 21.59C3.14522 22.43 4.36522 22.95 5.71522 22.95C7.05522 22.95 8.28522 22.43 9.20522 21.59Z" fill="#CA0B4A"/>
<path d="M7.49523 19.73C8.12523 19.76 8.46523 19.01 8.01523 18.56L3.72523 14.26C3.27523 13.82 2.52523 14.16 2.55523 14.79C2.60523 16.04 3.11523 17.27 4.06523 18.22C5.01522 19.17 6.24523 19.68 7.49523 19.73Z" fill="#CA0B4A"/>
<path d="M10.8252 22.39C11.4552 22.39 11.7652 23.15 11.3052 23.58L6.86522 27.72C6.40522 28.14 5.66522 27.78 5.71522 27.15C5.81522 25.9 6.35522 24.69 7.34522 23.77C8.32522 22.86 9.57522 22.4 10.8252 22.39Z" fill="#CA0B4A"/>
<path d="M12.1552 22.67C12.6052 22.22 13.3652 22.55 13.3452 23.18L13.1152 29.29C13.0952 29.93 12.3052 30.19 11.8952 29.71C11.0752 28.75 10.6052 27.5 10.6552 26.14C10.7052 24.78 11.2752 23.57 12.1552 22.67Z" fill="#CA0B4A"/>
<path d="M25.5728 13.46C25.5728 13.1574 25.4179 12.891 25.1831 12.7358C25.4827 12.5681 25.6852 12.2477 25.6852 11.88C25.6852 11.3388 25.2465 10.9 24.7052 10.9C24.164 10.9 23.7252 11.3388 23.7252 11.88C23.7252 12.2477 23.9277 12.5681 24.2273 12.7358C23.9925 12.8911 23.8377 13.1574 23.8377 13.46C23.8377 14.5188 22.9781 15.3724 21.9252 15.3724C21.4461 15.3724 21.0577 15.7608 21.0577 16.24C21.0577 16.7191 21.4461 17.1075 21.9252 17.1075C23.9323 17.1075 25.5728 15.4811 25.5728 13.46Z" fill="#CA0B4A"/>
<path d="M13 14C13.5523 14 14 13.5523 14 13C14 12.4477 13.5523 12 13 12C12.4477 12 12 12.4477 12 13C12 13.5523 12.4477 14 13 14Z" fill="#533566"/>
<path d="M19 14C19.5523 14 20 13.5523 20 13C20 12.4477 19.5523 12 19 12C18.4477 12 18 12.4477 18 13C18 13.5523 18.4477 14 19 14Z" fill="#533566"/>
<path d="M8.31575 11.5H6C6 7.91208 8.90214 5 12.5 5V7.32569C12.5 9.6315 10.6216 11.5 8.31575 11.5Z" fill="#F8312F"/>
<path d="M23.6842 11.5H26C26 7.91208 23.0979 5 19.5 5V7.32569C19.5 9.6315 21.3784 11.5 23.6842 11.5Z" fill="#F8312F"/>
<path d="M16 27C20.9705 27 25 23.099 25 18.2871C25 13.4653 20.9705 13 16 13C11.0295 13 7 13.4752 7 18.2871C7 23.099 11.0295 27 16 27Z" fill="#F8312F"/>
</svg>

<svg xmlns="http://www.w3.org/2000/svg" width="32" height="32" fill="none"><path fill="#CA0B4A" d="M12.52 6.48h-.42V5H14c0 .82-.66 1.48-1.48 1.48ZM12.52 6.81h-.42v1.48H14c0-.82-.66-1.48-1.48-1.48ZM19.48 6.48H20V5h-2c0 .82.66 1.48 1.48 1.48ZM19.48 6.81H20v1.48h-2c0-.82.66-1.48 1.48-1.48ZM7.618 12.739a.98.98 0 1 0-.956-.006.867.867 0 0 0-.394.727 3.648 3.648 0 0 0 3.647 3.648.868.868 0 1 0 0-1.736 1.913 1.913 0 0 1-1.912-1.912c0-.3-.153-.566-.385-.721ZM24.455 19.66c-.64.03-.98-.73-.53-1.18l4.33-4.33c.45-.45 1.21-.1 1.18.53-.05 1.26-.56 2.5-1.52 3.46s-2.2 1.47-3.46 1.52ZM23.195 20.32c-.64 0-.93.78-.46 1.21a5.211 5.211 0 0 0 7.04 0c.47-.43.17-1.21-.46-1.21h-6.12ZM20.41 23.245a.7.7 0 0 1 .675-.895c1.26.01 2.52.47 3.51 1.4.99.93 1.55 2.15 1.65 3.4.05.63-.7 1-1.16.57l-4.479-4.17c.432.726.696 1.565.73 2.47.05 1.36-.42 2.61-1.24 3.57-.41.48-1.2.22-1.22-.42l-.23-6.11a.695.695 0 0 1 1.19-.51c.21.215.402.447.573.695ZM9.205 21.59c.46-.43.17-1.2-.46-1.2h-6.06c-.63 0-.92.77-.46 1.2a5.156 5.156 0 0 0 6.98 0ZM7.495 19.73c.63.03.97-.72.52-1.17l-4.29-4.3c-.45-.44-1.2-.1-1.17.53.05 1.25.56 2.48 1.51 3.43.95.95 2.18 1.46 3.43 1.51ZM10.825 22.39c.63 0 .94.76.48 1.19l-4.44 4.14c-.46.42-1.2.06-1.15-.57.1-1.25.64-2.46 1.63-3.38.98-.91 2.23-1.37 3.48-1.38ZM12.155 22.67a.695.695 0 0 1 1.19.51l-.23 6.11c-.02.64-.81.9-1.22.42a5.172 5.172 0 0 1-1.24-3.57 5.22 5.22 0 0 1 1.5-3.47ZM25.573 13.46a.867.867 0 0 0-.39-.724.98.98 0 1 0-.956 0 .867.867 0 0 0-.39.724c0 1.059-.859 1.912-1.912 1.912a.868.868 0 0 0 0 1.736 3.648 3.648 0 0 0 3.648-3.648Z"/><path fill="#533566" d="M13 14a1 1 0 1 0 0-2 1 1 0 0 0 0 2ZM19 14a1 1 0 1 0 0-2 1 1 0 0 0 0 2Z"/><path fill="#F8312F" d="M8.316 11.5H6C6 7.912 8.902 5 12.5 5v2.326A4.182 4.182 0 0 1 8.316 11.5ZM23.684 11.5H26C26 7.912 23.098 5 19.5 5v2.326a4.182 4.182 0 0 0 4.184 4.174ZM16 27c4.97 0 9-3.901 9-8.713C25 13.465 20.97 13 16 13s-9 .475-9 5.287S11.03 27 16 27Z"/></svg>
